assets/icons/24px/stroke/arrow-circle-backward-twenty-24px.svg

<svg width="24" height="24" viewBox="0 0 24 24" fill="none" xmlns="http://www.w3.org/2000/svg">
<path fill-rule="evenodd" clip-rule="evenodd" d="M7.8865 2.30587C7.50314 1.90831 6.87008 1.89679 6.47252 2.28015L3.80587 4.85152C3.61042 5.03999 3.5 5.29984 3.5 5.57136C3.5 5.84288 3.6104 6.10273 3.80585 6.2912L6.4725 8.86271C6.87005 9.24608 7.50311 9.23458 7.88648 8.83703C8.26985 8.43948 8.25835 7.80642 7.8608 7.42305L6.9776 6.57137L11.5 6.57136C15.4354 6.57136 18.5 9.24909 18.5 13.2857C18.5 17.3223 15.4354 20 11.5 20C7.7054 20 5.12222 17.0681 5.12222 13.2857C5.12222 12.7334 4.6745 12.2857 4.12222 12.2857C3.56993 12.2857 3.12222 12.7334 3.12222 13.2857C3.12222 18.0243 6.45805 22 11.5 22C16.4011 22 20.5 18.5607 20.5 13.2857C20.5 8.01062 16.4011 4.57136 11.5 4.57136L6.97771 4.57137L7.86078 3.71985C8.25834 3.33649 8.26985 2.70343 7.8865 2.30587Z" fill="white"/>
<path fill-rule="evenodd" clip-rule="evenodd" d="M13.8146 11.3718C13.6283 11.7154 13.5 12.3557 13.5 13.5C13.5 14.6443 13.6283 15.2846 13.8146 15.6282C13.8999 15.7857 13.9906 15.8675 14.0804 15.9157C14.1749 15.9665 14.306 16 14.5 16C14.6816 16 14.8083 15.9637 14.9029 15.9081C14.9963 15.8531 15.0926 15.7594 15.1823 15.5886C15.3732 15.2248 15.5 14.5777 15.5 13.5C15.5 12.4223 15.3732 11.7752 15.1823 11.4114C15.0926 11.2406 14.9963 11.1469 14.9029 11.0919C14.8083 11.0363 14.6816 11 14.5 11C14.306 11 14.1749 11.0335 14.0804 11.0843C13.9906 11.1325 13.8999 11.2143 13.8146 11.3718ZM13.6071 10.2033C13.8876 10.0526 14.194 10 14.5 10C14.8184 10 15.1292 10.065 15.4096 10.2298C15.6912 10.3953 15.9074 10.6411 16.0677 10.9466C16.3768 11.5355 16.5 12.3884 16.5 13.5C16.5 14.6116 16.3768 15.4645 16.0677 16.0533C15.9074 16.3589 15.6912 16.6047 15.4096 16.7702C15.1292 16.935 14.8184 17 14.5 17C14.194 17 13.8876 16.9474 13.6071 16.7967C13.3219 16.6434 13.1001 16.4085 12.9354 16.1048C12.6217 15.5261 12.5 14.6664 12.5 13.5C12.5 12.3336 12.6217 11.4739 12.9354 10.8952C13.1001 10.5915 13.3219 10.3566 13.6071 10.2033ZM10.6546 13.6946C10.6546 13.6946 10.6546 13.6946 10.6546 13.6946L8.98094 15.9999L11 15.9998C11.2761 15.9998 11.5 16.2236 11.5 16.4997C11.5 16.7759 11.2762 16.9998 11 16.9998L8.00004 17C7.81204 17 7.63993 16.8946 7.55455 16.7271C7.46916 16.5596 7.48494 16.3584 7.59539 16.2062L9.84541 13.1071L9.84542 13.1071C10.3622 12.3952 10.422 11.9122 10.3597 11.6335C10.2999 11.366 10.1008 11.1667 9.80599 11.0652C9.50265 10.9608 9.15583 10.984 8.9029 11.1186C8.6757 11.2395 8.50005 11.4593 8.50005 11.8514C8.50005 12.1276 8.27619 12.3514 8.00005 12.3514C7.72391 12.3514 7.50005 12.1276 7.50005 11.8514C7.50005 11.0815 7.88689 10.5265 8.43311 10.2358C8.95361 9.95882 9.59115 9.93361 10.1315 10.1197C10.6805 10.3087 11.1845 10.7388 11.3356 11.4155C11.4843 12.081 11.2628 12.8569 10.6546 13.6946Z" fill="white"/>
</svg>

<svg width="24" height="24" fill="none" xmlns="http://www.w3.org/2000/svg"><path fill-rule="evenodd" clip-rule="evenodd" d="M7.886 2.306a1 1 0 0 0-1.413-.026L3.806 4.852a1 1 0 0 0 0 1.44l2.667 2.57A1 1 0 1 0 7.86 7.424l-.883-.852H11.5c3.935 0 7 2.678 7 6.715 0 4.036-3.065 6.714-7 6.714-3.795 0-6.378-2.932-6.378-6.714a1 1 0 1 0-2 0C3.122 18.024 6.458 22 11.5 22c4.901 0 9-3.44 9-8.714 0-5.275-4.099-8.715-9-8.715H6.978l.883-.851a1 1 0 0 0 .026-1.414z" fill="#fff"/><path fill-rule="evenodd" clip-rule="evenodd" d="M13.815 11.372c-.187.343-.315.984-.315 2.128 0 1.144.128 1.785.315 2.128a.66.66 0 0 0 .265.288c.095.05.226.084.42.084a.775.775 0 0 0 .403-.092.758.758 0 0 0 .28-.32c.19-.363.317-1.01.317-2.088s-.127-1.725-.318-2.089a.758.758 0 0 0-.28-.32A.775.775 0 0 0 14.5 11a.873.873 0 0 0-.42.084.66.66 0 0 0-.265.288zm-.208-1.169c.28-.15.587-.203.893-.203.318 0 .63.065.91.23.281.165.497.411.658.717.309.589.432 1.441.432 2.553 0 1.112-.123 1.964-.432 2.553-.16.306-.377.552-.658.717-.28.165-.592.23-.91.23a1.86 1.86 0 0 1-.893-.203 1.656 1.656 0 0 1-.672-.692c-.313-.579-.435-1.439-.435-2.605s.122-2.026.435-2.605c.165-.303.387-.538.672-.692zm-2.952 3.492L8.98 16H11a.5.5 0 1 1 0 1H8a.5.5 0 0 1-.405-.794l2.25-3.099c.517-.712.577-1.195.515-1.473-.06-.268-.26-.467-.554-.569a1.174 1.174 0 0 0-.903.054c-.227.12-.403.34-.403.732a.5.5 0 1 1-1 0c0-.77.387-1.325.933-1.615.52-.277 1.158-.302 1.699-.116.549.189 1.053.619 1.204 1.296.148.665-.073 1.44-.681 2.279z" fill="#fff"/></svg>
